!! George Gerswhin, "I Got Rhythm" from
!! "Bumper Book of George Gerswhin,"
!! London: Chappell Music Ltd., 1987; pp.132-135
**kern
*M2/2
*MM[Lively]
!! Verse
=1
4b-
4g
2b-
=2
4cc
2cc
4g
=3
4b-
4g
2b-
=4
1dd-
=5
4b-
4g
2b-
=6
4dd
2dd
4b-
=7
[1g
=8
2.g]
4r
=9
4b-
4g
2b-
=10
4cc
2cc
4g
!! page 133
=11
4b-
4g
2b-
=12
1dd-
=13
4b-
4g
2b-
=14
4dd
2dd
4dd
=15
[1b-
=16
2.b-]
4r
=17
4dd
4r
4d
4d
=18
4f
4f
2d
=19
4e-
4f
4g
4b-
=20
1dd-
=21
4ddn
4r
4d
4d
=22
4f
4f
2d
=23
4e-
4f
4g
4b-
=24
1cc
=25
1r
=26
1r
!! page 134
!! Refrain
=27
4r
[4f
8f]
4.g
=28
4.b-
[8cc
2cc]
=29
4r
[4cc
8cc]
4.b-
=30
4.g
[8f
2f]
=31
4r
[4f
8f]
4.g
=32
4.b-
[8cc
8cc]
4ee-
8cc
=33
4dd
4dd
8cc
8dd
4cc
=34
2.b-
4r
=35
4r
[4f
8f]
4.g
=36
4.b-
[8cc
2cc]
=37
4r
[4cc
8cc]
4.b-
=38
4.g
[8f
2f]
=39
4r
[4f
8f]
4.g
=40
4.b-
[8cc
8cc]
4ee-
8cc
=41
4dd
4dd
8cc
8dd
4cc
=42
1b-
=43
4r
[4dd
8dd]
4.dd
!! page 135
=44
4.dd
[8een
2ee]
=45
4r
[4dd
8dd]
4.dd
=46
4.dd
[8g
2g]
=47
4r
[4cc
8cc]
4.cc
=48
4.cc
[8dd
2dd]
=49
4r
[4cc
8cc]
4.cc
=50
1cc
=51
4r
[4f
8f]
4.g
=52
4.b-
[8cc
2cc]
=53
4r
[4cc
8cc]
4.b-
=54
4.g
[8f
2f]
=55
4r
[4f
8f]
4.g
=56
4.b-
[8cc
8cc]
4ee-
8cc
=57
4dd
4dd
8cc
8dd
4ee-
=58
2.ff
8ee-
8bn
=59
4dd
4dd
8cc
8dd
4cc
!! First ending.
=60
1b-
!! page 134
!! Refrain
=27
4r
[4f
8f]
4.g
=28
4.b-
[8cc
2cc]
=29
4r
[4cc
8cc]
4.b-
=30
4.g
[8f
2f]
=31
4r
[4f
8f]
4.g
=32
4.b-
[8cc
8cc]
4ee-
8cc
=33
4dd
4dd
8cc
8dd
4cc
=34
2.b-
4r
=35
4r
[4f
8f]
4.g
=36
4.b-
[8cc
2cc]
=37
4r
[4cc
8cc]
4.b-
=38
4.g
[8f
2f]
=39
4r
[4f
8f]
4.g
=40
4.b-
[8cc
8cc]
4ee-
8cc
=41
4dd
4dd
8cc
8dd
4cc
=42
1b-
=43
4r
[4dd
8dd]
4.dd
!! page 135
=44
4.dd
[8een
2ee]
=45
4r
[4dd
8dd]
4.dd
=46
4.dd
[8g
2g]
=47
4r
[4cc
8cc]
4.cc
=48
4.cc
[8dd
2dd]
=49
4r
[4cc
8cc]
4.cc
=50
1cc
=51
4r
[4f
8f]
4.g
=52
4.b-
[8cc
2cc]
=53
4r
[4cc
8cc]
4.b-
=54
4.g
[8f
2f]
=55
4r
[4f
8f]
4.g
=56
4.b-
[8cc
8cc]
4ee-
8cc
=57
4dd
4dd
8cc
8dd
4ee-
=58
2.ff
8ee-
8bn
=59
4dd
4dd
8cc
8dd
4cc
!! Second ending.
=60
2.b-
4r
====
*-
